public/images/sw-skills/github.svg

<svg xmlns="http://www.w3.org/2000/svg" xml:space="preserve" style="fill-rule:evenodd;clip-rule:evenodd;stroke-linejoin:round;stroke-miterlimit:2" viewBox="0 0 2400 1600"><path d="M0 0h2400v1600H0z"/><path d="M0-118.275c-33.347 0-60.388 27.035-60.388 60.388 0 26.68 17.303 49.316 41.297 57.301 3.018.559 4.126-1.31 4.126-2.905 0-1.439-.056-6.197-.082-11.243-16.8 3.653-20.345-7.125-20.345-7.125-2.747-6.979-6.705-8.836-6.705-8.836-5.479-3.748.413-3.671.413-3.671 6.064.426 9.257 6.224 9.257 6.224 5.386 9.231 14.127 6.562 17.573 5.019.543-3.902 2.107-6.567 3.834-8.075-13.413-1.526-27.513-6.705-27.513-29.844 0-6.592 2.359-11.979 6.222-16.208-.627-1.522-2.694-7.664.586-15.982 0 0 5.071-1.622 16.61 6.191C-10.298-88.379-5.132-89.05 0-89.074c5.132.024 10.302.695 15.128 2.033 11.526-7.813 16.59-6.191 16.59-6.191 3.287 8.318 1.22 14.46.593 15.982 3.872 4.229 6.214 9.616 6.214 16.208 0 23.195-14.127 28.301-27.574 29.796 2.166 1.874 4.096 5.549 4.096 11.183 0 8.08-.069 14.583-.069 16.572 0 1.608 1.086 3.491 4.147 2.898 23.982-7.994 41.263-30.622 41.263-57.294 0-33.353-27.037-60.388-60.388-60.388" style="fill:#fff" transform="translate(1200 1240.77)scale(7.42314)"/><path d="M-.787-.501c-.329-.004-.608.387-.599.864-.004.481.266.875.599.871.334.01.609-.383.604-.867.004-.48-.268-.88-.604-.868" style="fill:#fff;fill-rule:nonzero" transform="scale(7.42313 -7.42313)rotate(65.37 166.939 29.315)"/><path d="M-.704-.272c-.393-.001-.724.472-.719 1.04-.006.578.321 1.043.719 1.044.4-.005.717-.466.723-1.043C.022.187-.299-.277-.704-.272" style="fill:#fff;fill-rule:nonzero" transform="scale(7.42314 -7.42314)rotate(42.588 240.015 94.004)"/><path d="M-.671-.208c-.451-.004-.815.537-.82 1.192-.002.653.362 1.184.82 1.183.455.002.816-.528.828-1.181C.154.327-.21-.204-.671-.208" style="fill:#fff;fill-rule:nonzero" transform="scale(7.42313 -7.42313)rotate(34.379 292.973 138.537)"/><path d="M-.945-.403c-.493-.008-.903.574-.892 1.291-.005.718.399 1.297.892 1.305.497.005.906-.583.901-1.301C-.041.178-.441-.414-.945-.403" style="fill:#fff;fill-rule:nonzero" transform="scale(7.42313 -7.42313)rotate(46.904 232.464 80.72)"/><path d="M-1.255-.923c-.496.004-.896.592-.9 1.305.001.714.402 1.301.9 1.306.497.002.907-.587.9-1.309-.001-.712-.399-1.3-.9-1.302" style="fill:#fff;fill-rule:nonzero" transform="scale(7.42313 -7.42313)rotate(73.265 166.031 18.78)"/><path d="M-1.29-1.311c-.498-.008-.901.578-.899 1.296-.005.723.409 1.301.899 1.301.503-.009.902-.583.903-1.304.002-.719-.409-1.301-.903-1.293" style="fill:#fff;fill-rule:nonzero" transform="scale(-7.42314 7.42314)rotate(-89.051 4.145 144.437)"/><path d="M-1.285-1.533c-.493.001-.895.581-.899 1.306-.002.713.41 1.298.899 1.3.505-.003.906-.591.908-1.303-.005-.725-.406-1.302-.908-1.303" style="fill:#fff;fill-rule:nonzero" transform="scale(-7.42313 7.42313)rotate(-79.746 14.933 159.354)"/></svg>

<?xml version="1.0" encoding="UTF-8" standalone="no"?>
<!DOCTYPE svg PUBLIC "-//W3C//DTD SVG 1.1//EN" "http://www.w3.org/Graphics/SVG/1.1/DTD/svg11.dtd">
<svg width="100%" height="100%" viewBox="0 0 2400 1600" version="1.1" xmlns="http://www.w3.org/2000/svg" xmlns:xlink="http://www.w3.org/1999/xlink" xml:space="preserve" xmlns:serif="http://www.serif.com/" style="fill-rule:evenodd;clip-rule:evenodd;stroke-linejoin:round;stroke-miterlimit:2;">
    <rect x="0" y="0" width="2400" height="1600"/>
    <g transform="matrix(7.42314,0,0,7.42314,1200,1240.77)">
        <path d="M0,-118.275C-33.347,-118.275 -60.388,-91.24 -60.388,-57.887C-60.388,-31.207 -43.085,-8.571 -19.091,-0.586C-16.073,-0.027 -14.965,-1.896 -14.965,-3.491C-14.965,-4.93 -15.021,-9.688 -15.047,-14.734C-31.847,-11.081 -35.392,-21.859 -35.392,-21.859C-38.139,-28.838 -42.097,-30.695 -42.097,-30.695C-47.576,-34.443 -41.684,-34.366 -41.684,-34.366C-35.62,-33.94 -32.427,-28.142 -32.427,-28.142C-27.041,-18.911 -18.3,-21.58 -14.854,-23.123C-14.311,-27.025 -12.747,-29.69 -11.02,-31.198C-24.433,-32.724 -38.533,-37.903 -38.533,-61.042C-38.533,-67.634 -36.174,-73.021 -32.311,-77.25C-32.938,-78.772 -35.005,-84.914 -31.725,-93.232C-31.725,-93.232 -26.654,-94.854 -15.115,-87.041C-10.298,-88.379 -5.132,-89.05 0,-89.074C5.132,-89.05 10.302,-88.379 15.128,-87.041C26.654,-94.854 31.718,-93.232 31.718,-93.232C35.005,-84.914 32.938,-78.772 32.311,-77.25C36.183,-73.021 38.525,-67.634 38.525,-61.042C38.525,-37.847 24.398,-32.741 10.951,-31.246C13.117,-29.372 15.047,-25.697 15.047,-20.063C15.047,-11.983 14.978,-5.48 14.978,-3.491C14.978,-1.883 16.064,0 19.125,-0.593C43.107,-8.587 60.388,-31.215 60.388,-57.887C60.388,-91.24 33.351,-118.275 0,-118.275" style="fill:white;"/>
    </g>
    <g transform="matrix(3.09362,-6.74777,-6.74777,-3.09362,920.572,999.548)">
        <path d="M-0.787,-0.501C-1.116,-0.505 -1.395,-0.114 -1.386,0.363C-1.39,0.844 -1.12,1.238 -0.787,1.234C-0.453,1.244 -0.178,0.851 -0.183,0.367C-0.179,-0.113 -0.451,-0.513 -0.787,-0.501" style="fill:white;fill-rule:nonzero;"/>
    </g>
    <g transform="matrix(5.46519,-5.02341,-5.02341,-5.46519,942.157,1021.64)">
        <path d="M-0.704,-0.272C-1.097,-0.273 -1.428,0.2 -1.423,0.768C-1.429,1.346 -1.102,1.811 -0.704,1.812C-0.304,1.807 0.013,1.346 0.019,0.769C0.022,0.187 -0.299,-0.277 -0.704,-0.272" style="fill:white;fill-rule:nonzero;"/>
    </g>
    <g transform="matrix(6.12644,-4.19161,-4.19161,-6.12644,960.587,1048.39)">
        <path d="M-0.671,-0.208C-1.122,-0.212 -1.486,0.329 -1.491,0.984C-1.493,1.637 -1.129,2.168 -0.671,2.167C-0.216,2.169 0.145,1.639 0.157,0.986C0.154,0.327 -0.21,-0.204 -0.671,-0.208" style="fill:white;fill-rule:nonzero;"/>
    </g>
    <g transform="matrix(5.07166,-5.42044,-5.42044,-5.07166,984.168,1070.25)">
        <path d="M-0.945,-0.403C-1.438,-0.411 -1.848,0.171 -1.837,0.888C-1.842,1.606 -1.438,2.185 -0.945,2.193C-0.448,2.198 -0.039,1.61 -0.044,0.892C-0.041,0.178 -0.441,-0.414 -0.945,-0.403" style="fill:white;fill-rule:nonzero;"/>
    </g>
    <g transform="matrix(2.13746,-7.10874,-7.10874,-2.13746,1011.09,1081.01)">
        <path d="M-1.255,-0.923C-1.751,-0.919 -2.151,-0.331 -2.155,0.382C-2.154,1.096 -1.753,1.683 -1.255,1.688C-0.758,1.69 -0.348,1.101 -0.355,0.379C-0.356,-0.333 -0.754,-0.921 -1.255,-0.923" style="fill:white;fill-rule:nonzero;"/>
    </g>
    <g transform="matrix(-0.12294,-7.42212,-7.42212,0.12294,1041.77,1085.18)">
        <path d="M-1.29,-1.311C-1.788,-1.319 -2.191,-0.733 -2.189,-0.015C-2.194,0.708 -1.78,1.286 -1.29,1.286C-0.787,1.277 -0.388,0.703 -0.387,-0.018C-0.385,-0.737 -0.796,-1.319 -1.29,-1.311" style="fill:white;fill-rule:nonzero;"/>
    </g>
    <g transform="matrix(-1.32137,-7.30458,-7.30458,1.32137,1072.89,1081.42)">
        <path d="M-1.285,-1.533C-1.778,-1.532 -2.18,-0.952 -2.184,-0.227C-2.186,0.486 -1.774,1.071 -1.285,1.073C-0.78,1.07 -0.379,0.482 -0.377,-0.23C-0.382,-0.955 -0.783,-1.532 -1.285,-1.533" style="fill:white;fill-rule:nonzero;"/>
    </g>
</svg>
